brandFactory_export/2.Regular/Autobus_2Regular.svg

<?xml version="1.0" encoding="UTF-8"?>
<svg width="24px" height="24px" viewBox="0 0 24 24" version="1.1" xmlns="http://www.w3.org/2000/svg" xmlns:xlink="http://www.w3.org/1999/xlink">
    <title>2.Regular/Autobus_2Regular</title>
    <g id="Symbols" stroke="none" stroke-width="1" fill="none" fill-rule="evenodd">
        <g id="2.Regular/Autobus_2Regular" fill="#5CB615" fill-rule="nonzero">
            <path d="M21.7714286,16.8487395 C21.5294118,17.0941176 21.2134454,17.2420168 20.9210084,17.2554622 C20.9243697,17.1647059 20.9411765,17.0840336 20.9411765,16.9932773 C20.9411765,14.6806723 19.5159664,13.2420168 17.2201681,13.2420168 C14.9243697,13.2420168 13.4957983,14.6806723 13.4957983,16.9932773 C13.4957983,17.087395 13.512605,17.1714286 13.5193277,17.2621849 L9.51260504,17.2621849 C9.51596639,17.1714286 9.53277311,17.087395 9.53277311,16.9932773 C9.53277311,14.6806723 8.10756303,13.2420168 5.81176471,13.2420168 C3.51596639,13.2420168 2.0907563,14.6806723 2.0907563,16.9932773 L2.0907563,17.0033613 C2.01344538,16.9529412 1.92268908,16.9193277 1.85546218,16.8487395 C1.59327731,16.5865546 1.44537815,16.2571429 1.44537815,15.9445378 L1.44537815,11.2521008 L15.502521,11.2521008 C15.5495798,11.2521008 20.507563,11.0739496 22.1781513,14.4857143 L22.1781513,15.9445378 C22.1781513,16.2571429 22.0302521,16.5865546 21.7714286,16.8487395 L21.7714286,16.8487395 Z M17.2168067,19.292437 C15.7042017,19.292437 14.9378151,18.5193277 14.9378151,16.9966387 C14.9378151,15.4739496 15.7042017,14.7008403 17.2168067,14.7008403 C18.7294118,14.7008403 19.4957983,15.4739496 19.4957983,16.9966387 C19.4957983,18.5193277 18.7294118,19.292437 17.2168067,19.292437 Z M5.80840336,19.292437 C4.29579832,19.292437 3.52941176,18.5193277 3.52941176,16.9966387 C3.52941176,15.4739496 4.29579832,14.7008403 5.80840336,14.7008403 C7.3210084,14.7008403 8.08739496,15.4739496 8.08739496,16.9966387 C8.08739496,18.5193277 7.3210084,19.292437 5.80840336,19.292437 Z M1.85546218,4.89579832 C2.11428571,4.63361345 2.44369748,4.48235294 2.75294118,4.48235294 L6.75630252,4.48235294 L6.75630252,9.79663866 L1.44537815,9.79663866 L1.44537815,5.8 C1.44537815,5.49411765 1.59663866,5.15462185 1.85546218,4.89579832 Z M8.19831933,9.79663866 L13.4655462,9.79663866 L13.4655462,4.48235294 L8.19831933,4.48235294 L8.19831933,9.79663866 L8.19831933,9.79663866 Z M22.1781513,11.887395 L22.1781513,12.0621849 C19.6436975,9.63529412 15.6403361,9.78655462 15.4655462,9.79663866 L14.907563,9.79663866 L14.907563,4.48235294 L16.1714286,4.48235294 C16.4168067,4.48571429 22.1781513,4.58655462 22.1781513,11.887395 L22.1781513,11.887395 Z M21.2773109,5.21176471 C19.1092437,3.03697479 16.2722689,3.02689076 16.1747899,3.0302521 L2.75294118,3.0302521 C2.0605042,3.0302521 1.36134454,3.33613445 0.833613445,3.86722689 C0.302521008,4.39831933 0,5.10420168 0,5.80336134 L0,15.9445378 C0,16.6403361 0.302521008,17.3462185 0.833613445,17.8806723 C1.2605042,18.3109244 1.79831933,18.5731092 2.40336134,18.6705882 C2.93781513,19.9781513 4.14117647,20.7478992 5.81176471,20.7478992 C7.46218487,20.7478992 8.65210084,19.994958 9.19663866,18.7176471 L13.8352941,18.7176471 C14.3798319,19.994958 15.5697479,20.7478992 17.2201681,20.7478992 C18.8705882,20.7478992 20.0605042,19.994958 20.605042,18.7176471 L20.8739496,18.7176471 C21.5663866,18.7176471 22.2655462,18.4117647 22.7966387,17.8773109 C23.3243697,17.3462185 23.6268908,16.6403361 23.6268908,15.9411765 L23.6268908,11.8840336 C23.6235294,9.02016807 22.8336134,6.77478992 21.2773109,5.21176471 L21.2773109,5.21176471 Z" id="Autobus_2Regular"></path>
        </g>
    </g>
</svg>

<svg width="24" height="24" viewBox="0 0 24 24" xmlns="http://www.w3.org/2000/svg"><path d="M21.771 16.849c-.242.245-.558.393-.85.406.003-.09.02-.171.02-.262 0-2.312-1.425-3.751-3.72-3.751-2.297 0-3.725 1.439-3.725 3.751 0 .094.017.178.023.27H9.513c.003-.092.02-.176.02-.27 0-2.312-1.425-3.751-3.721-3.751-2.296 0-3.721 1.439-3.721 3.751v.01c-.078-.05-.168-.084-.236-.154-.262-.262-.41-.592-.41-.904v-4.693h14.058c.047 0 5.005-.178 6.675 3.234v1.459c0 .312-.148.642-.407.904zm-4.554 2.443c-1.513 0-2.28-.773-2.28-2.295 0-1.523.767-2.296 2.28-2.296 1.512 0 2.279.773 2.279 2.296 0 1.522-.767 2.295-2.28 2.295zm-11.409 0c-1.512 0-2.279-.773-2.279-2.295 0-1.523.767-2.296 2.28-2.296 1.512 0 2.278.773 2.278 2.296 0 1.522-.766 2.295-2.279 2.295zM1.855 4.896c.26-.262.589-.414.898-.414h4.003v5.315h-5.31V5.8c0-.306.15-.645.41-.904zm6.343 4.9h5.268V4.483H8.198v5.315zm13.98 2.091v.175c-2.534-2.427-6.538-2.275-6.712-2.265h-.558V4.482h1.263c.246.004 6.007.105 6.007 7.405zm-.9-6.675c-2.169-2.175-5.006-2.185-5.103-2.182H2.753c-.692 0-1.392.306-1.92.837C.304 4.398 0 5.104 0 5.803v10.142c0 .695.303 1.401.834 1.936.427.43.964.692 1.57.79.534 1.307 1.737 2.077 3.408 2.077 1.65 0 2.84-.753 3.385-2.03h4.638c.545 1.277 1.735 2.03 3.385 2.03 1.65 0 2.84-.753 3.385-2.03h.269c.692 0 1.392-.306 1.923-.84.527-.532.83-1.238.83-1.937v-4.057c-.003-2.864-.793-5.11-2.35-6.672z" fill="#5CB615" fill-rule="nonzero"/></svg>
